svg/other/balloon_2_line.svg

<?xml version="1.0" encoding="UTF-8"?>
<svg width="24px" height="24px" viewBox="0 0 24 24" version="1.1" xmlns="http://www.w3.org/2000/svg" xmlns:xlink="http://www.w3.org/1999/xlink">
    <title>balloon_2_line</title>
    <g id="Icon" stroke="none" stroke-width="1" fill="none" fill-rule="evenodd">
        <g id="Business" transform="translate(-48.000000, -480.000000)" fill-rule="nonzero">
            <g id="balloon_2_line" transform="translate(48.000000, 480.000000)">
                <path d="M24,0 L24,24 L0,24 L0,0 L24,0 Z M12.5935,23.2578 L12.5819,23.2595 L12.5109,23.295 L12.4919,23.2987 L12.4767,23.295 L12.4057,23.2595 C12.3958,23.2564 12.387,23.259 12.3821,23.2649 L12.378,23.2758 L12.3609,23.7031 L12.3659,23.7235 L12.3769,23.7357 L12.4805,23.8097 L12.4953,23.8136 L12.5071,23.8097 L12.6107,23.7357 L12.6233,23.7197 L12.6267,23.7031 L12.6096,23.2758 C12.6076,23.2657 12.601,23.2593 12.5935,23.2578 Z M12.8584,23.1453 L12.8445,23.1473 L12.6598,23.2397 L12.6499,23.2499 L12.6472,23.2611 L12.6651,23.6906 L12.6699,23.7034 L12.6784,23.7105 L12.8793,23.8032 C12.8914,23.8069 12.9022,23.803 12.9078,23.7952 L12.9118,23.7812 L12.8777,23.1665 C12.8753,23.1546 12.8674,23.147 12.8584,23.1453 Z M12.143,23.1473 C12.1332,23.1424 12.1222,23.1453 12.1156,23.1526 L12.1099,23.1665 L12.0758,23.7812 C12.0751,23.7927 12.0828,23.8019 12.0926,23.8046 L12.1083,23.8032 L12.3092,23.7105 L12.3186,23.7024 L12.3225,23.6906 L12.3404,23.2611 L12.3372,23.2485 L12.3278,23.2397 L12.143,23.1473 Z" id="MingCute"></path>
                <path d="M12,2 C16.4298,2 20,5.65929 20,10.0588 C20,12.5641 18.8819,15.016 17.3989,16.8282 C16.3907133,18.0601067 15.1143116,19.1119547 13.7771817,19.6387724 L13.4898,19.7435 L13.8944,20.5528 C14.0494,20.8628 14.0329,21.2309 13.8507,21.5257 C13.6911875,21.78365 13.4248703,21.9533234 13.1285885,21.9917113 L13,22 L11,22 C10.6534,22 10.3316,21.8205 10.1493,21.5257 C9.98991,21.26775 9.9573075,20.9536797 10.0554986,20.6715168 L10.1056,20.5528 L10.5102,19.7435 C9.06937,19.2613 7.68134,18.1481 6.60112,16.8282 C5.11806,15.016 4,12.5641 4,10.0588 C4,5.65929 7.57022,2 12,2 Z M12,4 C8.6978,4 6,6.74071 6,10.0588 C6,11.9947 6.88194,14.0134 8.14888,15.5615 C9.44843,17.1495 10.943,18 12,18 C13.057,18 14.5516,17.1495 15.8511,15.5615 C17.1181,14.0134 18,11.9947 18,10.0588 C18,6.74071 15.3022,4 12,4 Z M13.2781,5.18106 C14.9319,5.65991 16.1988,7.02061 16.7264,8.70016 C16.892,9.22705 16.599,9.78837 16.0721,9.9539 C15.5452,10.1194 14.9839,9.8265 14.8184,9.2996 C14.4656,8.17656 13.6531,7.37179 12.7219,7.10215 C12.1914,6.94854 11.8858,6.39396 12.0395,5.86347 C12.1931,5.33298 12.7476,5.02745 13.2781,5.18106 Z" id="形状" fill="#09244B"></path>
            </g>
        </g>
    </g>
</svg>

<svg xmlns="http://www.w3.org/2000/svg" width="24" height="24"><g fill="none" fill-rule="nonzero"><path d="M24 0v24H0V0h24ZM12.594 23.258l-.012.002-.071.035-.02.004-.014-.004-.071-.036c-.01-.003-.019 0-.024.006l-.004.01-.017.428.005.02.01.013.104.074.015.004.012-.004.104-.074.012-.016.004-.017-.017-.427c-.002-.01-.009-.017-.016-.018Zm.264-.113-.014.002-.184.093-.01.01-.003.011.018.43.005.012.008.008.201.092c.012.004.023 0 .029-.008l.004-.014-.034-.614c-.003-.012-.01-.02-.02-.022Zm-.715.002a.023.023 0 0 0-.027.006l-.006.014-.034.614c0 .012.007.02.017.024l.015-.002.201-.093.01-.008.003-.011.018-.43-.003-.012-.01-.01-.184-.092Z"/><path fill="#09244B" d="M12 2c4.43 0 8 3.66 8 8.059 0 2.505-1.118 4.957-2.601 6.77-1.008 1.231-2.285 2.283-3.622 2.81l-.287.105.404.809a1 1 0 0 1-.765 1.439L13 22h-2a1 1 0 0 1-.945-1.328l.05-.12.405-.808c-1.44-.483-2.829-1.596-3.909-2.916C5.118 15.016 4 12.564 4 10.058 4 5.66 7.57 2 12 2Zm0 2c-3.302 0-6 2.74-6 6.059 0 1.936.882 3.954 2.149 5.503C9.449 17.15 10.943 18 12 18s2.552-.85 3.851-2.438C17.118 14.013 18 11.995 18 10.059 18 6.74 15.302 4 12 4Zm1.278 1.181c1.654.479 2.92 1.84 3.448 3.52a1 1 0 1 1-1.908.599c-.352-1.123-1.165-1.928-2.096-2.198a1 1 0 1 1 .556-1.92Z"/></g></svg>
